Origami/48x48/apps/anbox.svg

<svg width="48" height="48" version="1" xmlns="http://www.w3.org/2000/svg">
 <rect transform="matrix(0,-1,-1,0,0,0)" x="-45" y="-44" width="40" height="40" rx="2" ry="2" style="opacity:.2"/>
 <rect transform="matrix(0,-1,-1,0,0,0)" x="-44" y="-44" width="40" height="40" rx="2" ry="2" style="fill:#109d8f"/>
 <path d="m28.5625 11.039062c-0.192985-0.02407-0.390266 0.06813-0.494141 0.248047l-1.511718 2.619141c-0.793809-0.264769-1.651111-0.417969-2.552735-0.417969-0.902957 0-1.764285 0.152454-2.558594 0.417969l-1.511718-2.619141c-0.103875-0.179916-0.30077-0.270322-0.494141-0.246093-0.06446 0.0081-0.129481 0.02787-0.189453 0.0625-0.239889 0.1385-0.320141 0.443704-0.181641 0.683593l1.44336 2.501953c-1.960829 0.957989-3.334991 2.693002-3.513672 4.710938h14c-0.178676-2.017871-1.547304-3.756374-3.507813-4.710938l1.44336-2.501953c0.1385-0.239889 0.0563-0.545093-0.183594-0.683593-0.05997-0.03463-0.123172-0.05643-0.1875-0.06445zm-7.513672 4.541016c0.43 0 0.773438 0.341766 0.773438 0.759766s-0.348438 0.761719-0.773438 0.761718c-0.43 0-0.777344-0.339718-0.777344-0.761718 0-0.418 0.348344-0.759766 0.777344-0.759766zm6 0c0.426 0 0.773438 0.341766 0.773438 0.759766s-0.348438 0.761719-0.773438 0.761718c-0.43 0-0.777344-0.339718-0.777344-0.761718 0-0.418 0.348344-0.759766 0.777344-0.759766zm-12.482422 4.419922c-0.863 0-1.566406 0.758406-1.566406 1.691406v6.617188c0 0.934 0.703406 1.695312 1.566406 1.695312s1.433594-0.762312 1.433594-1.695312v-6.617188c0-0.934-0.569594-1.691406-1.433594-1.691406zm2.4375 0v11.59375c0 0.688 0.32 1.40625 1 1.40625h2v3.375c0 0.898 0.616282 1.625 1.488282 1.625 0.867 0 1.511718-0.727 1.511718-1.625v-3.375h2v3.375c0 0.898 0.741282 1.625 1.613282 1.625 0.867 0 1.390624-0.727 1.390624-1.625v-3.375h2c0.676 0 1-0.7193 1-1.40625v-11.59375zm16.433594 0c-0.863 0-1.433594 0.758406-1.433594 1.691406v6.617188c0 0.934 0.569594 1.695312 1.433594 1.695312 0.867 0 1.5625-0.762312 1.5625-1.695312v-6.617188c0-0.934-0.6985-1.691406-1.5625-1.691406z" style="opacity:.2"/>
 <path d="m28.5625 10.039062c-0.192985-0.024065-0.390266 0.068131-0.494141 0.248047l-1.511718 2.619141c-0.793809-0.264769-1.651111-0.417969-2.552735-0.417969-0.902957 0-1.764285 0.152454-2.558594 0.417969l-1.511718-2.619141c-0.103875-0.179916-0.30077-0.270322-0.494141-0.246093-0.064457 0.008076-0.129481 0.027875-0.189453 0.0625-0.239889 0.1385-0.320141 0.443704-0.181641 0.683593l1.44336 2.501953c-1.960829 0.957989-3.334991 2.693002-3.513672 4.710938h14c-0.178676-2.017871-1.547304-3.756374-3.507813-4.710938l1.44336-2.501953c0.1385-0.239889 0.056295-0.545093-0.183594-0.683593-0.059972-0.034625-0.123172-0.056432-0.1875-0.064454zm-7.513672 4.541016c0.43 0 0.773438 0.341766 0.773438 0.759766s-0.348438 0.761719-0.773438 0.761718c-0.43 0-0.777344-0.339718-0.777344-0.761718 0-0.418 0.348344-0.759766 0.777344-0.759766zm6 0c0.426 0 0.773438 0.341766 0.773438 0.759766s-0.348438 0.761719-0.773438 0.761718c-0.43 0-0.777344-0.339718-0.777344-0.761718 0-0.418 0.348344-0.759766 0.777344-0.759766zm-12.482422 4.419922c-0.863 0-1.566406 0.758406-1.566406 1.691406v6.617188c0 0.934 0.703406 1.695312 1.566406 1.695312s1.433594-0.762312 1.433594-1.695312v-6.617188c0-0.934-0.569594-1.691406-1.433594-1.691406zm2.4375 0v11.59375c0 0.688 0.32 1.40625 1 1.40625h2v3.375c0 0.898 0.616282 1.625 1.488282 1.625 0.867 0 1.511718-0.727 1.511718-1.625v-3.375h2v3.375c0 0.898 0.741282 1.625 1.613282 1.625 0.867 0 1.390624-0.727 1.390624-1.625v-3.375h2c0.676 0 1-0.7193 1-1.40625v-11.59375h-14.003906zm16.433594 0c-0.863 0-1.433594 0.758406-1.433594 1.691406v6.617188c0 0.934 0.569594 1.695312 1.433594 1.695312 0.867 0 1.5625-0.762312 1.5625-1.695312v-6.617188c0-0.934-0.6985-1.691406-1.5625-1.691406z" style="fill:#ffffff"/>
 <path d="m6 4c-1.108 0-2 0.892-2 2v1c0-1.108 0.892-2 2-2h36c1.108 0 2 0.892 2 2v-1c0-1.108-0.892-2-2-2h-36z" style="fill:#ffffff;opacity:.2"/>
</svg>

<svg xmlns="http://www.w3.org/2000/svg" width="48" height="48" version="1">
 <rect style="opacity:0.2" width="40" height="40" x="-45" y="-44" rx="2" ry="2" transform="matrix(0,-1,-1,0,0,0)"/>
 <rect style="fill:#109d8f" width="40" height="40" x="-44" y="-44" rx="2" ry="2" transform="matrix(0,-1,-1,0,0,0)"/>
 <path style="opacity:0.2" d="m 28.5625,11.039062 c -0.192985,-0.02407 -0.390266,0.06813 -0.494141,0.248047 l -1.511718,2.619141 c -0.793809,-0.264769 -1.651111,-0.417969 -2.552735,-0.417969 -0.902957,0 -1.764285,0.152454 -2.558594,0.417969 l -1.511718,-2.619141 c -0.103875,-0.179916 -0.30077,-0.270322 -0.494141,-0.246093 -0.06446,0.0081 -0.129481,0.02787 -0.189453,0.0625 -0.239889,0.1385 -0.320141,0.443704 -0.181641,0.683593 l 1.44336,2.501953 C 18.55089,15.247051 17.176728,16.982064 16.998047,19 h 14 c -0.178676,-2.017871 -1.547304,-3.756374 -3.507813,-4.710938 l 1.44336,-2.501953 c 0.1385,-0.239889 0.0563,-0.545093 -0.183594,-0.683593 -0.05997,-0.03463 -0.123172,-0.05643 -0.1875,-0.06445 z m -7.513672,4.541016 c 0.43,0 0.773438,0.341766 0.773438,0.759766 0,0.418 -0.348438,0.761719 -0.773438,0.761718 -0.43,0 -0.777344,-0.339718 -0.777344,-0.761718 0,-0.418 0.348344,-0.759766 0.777344,-0.759766 z m 6,0 c 0.426,0 0.773438,0.341766 0.773438,0.759766 0,0.418 -0.348438,0.761719 -0.773438,0.761718 -0.43,0 -0.777344,-0.339718 -0.777344,-0.761718 0,-0.418 0.348344,-0.759766 0.777344,-0.759766 z M 14.566406,20 C 13.703406,20 13,20.758406 13,21.691406 v 6.617188 c 0,0.934 0.703406,1.695312 1.566406,1.695312 0.863,0 1.433594,-0.762312 1.433594,-1.695312 V 21.691406 C 16,20.757406 15.430406,20 14.566406,20 Z m 2.4375,0 v 11.59375 c 0,0.688 0.32,1.40625 1,1.40625 h 2 v 3.375 c 0,0.898 0.616282,1.625 1.488282,1.625 0.867,0 1.511718,-0.727 1.511718,-1.625 V 33 h 2 v 3.375 c 0,0.898 0.741282,1.625 1.613282,1.625 0.867,0 1.390624,-0.727 1.390624,-1.625 V 33 h 2 c 0.676,0 1,-0.7193 1,-1.40625 V 20 Z M 33.4375,20 c -0.863,0 -1.433594,0.758406 -1.433594,1.691406 v 6.617188 c 0,0.934 0.569594,1.695312 1.433594,1.695312 0.867,0 1.5625,-0.762312 1.5625,-1.695312 V 21.691406 C 35,20.757406 34.3015,20 33.4375,20 Z"/>
 <path style="fill:#ffffff" d="M 28.5625 10.039062 C 28.369515 10.014997 28.172234 10.107193 28.068359 10.287109 L 26.556641 12.90625 C 25.762832 12.641481 24.90553 12.488281 24.003906 12.488281 C 23.100949 12.488281 22.239621 12.640735 21.445312 12.90625 L 19.933594 10.287109 C 19.829719 10.107193 19.632824 10.016787 19.439453 10.041016 C 19.374996 10.049092 19.309972 10.068891 19.25 10.103516 C 19.010111 10.242016 18.929859 10.54722 19.068359 10.787109 L 20.511719 13.289062 C 18.55089 14.247051 17.176728 15.982064 16.998047 18 L 30.998047 18 C 30.819371 15.982129 29.450743 14.243626 27.490234 13.289062 L 28.933594 10.787109 C 29.072094 10.54722 28.989889 10.242016 28.75 10.103516 C 28.690028 10.068891 28.626828 10.047084 28.5625 10.039062 z M 21.048828 14.580078 C 21.478828 14.580078 21.822266 14.921844 21.822266 15.339844 C 21.822266 15.757844 21.473828 16.101563 21.048828 16.101562 C 20.618828 16.101562 20.271484 15.761844 20.271484 15.339844 C 20.271484 14.921844 20.619828 14.580078 21.048828 14.580078 z M 27.048828 14.580078 C 27.474828 14.580078 27.822266 14.921844 27.822266 15.339844 C 27.822266 15.757844 27.473828 16.101563 27.048828 16.101562 C 26.618828 16.101562 26.271484 15.761844 26.271484 15.339844 C 26.271484 14.921844 26.619828 14.580078 27.048828 14.580078 z M 14.566406 19 C 13.703406 19 13 19.758406 13 20.691406 L 13 27.308594 C 13 28.242594 13.703406 29.003906 14.566406 29.003906 C 15.429406 29.003906 16 28.241594 16 27.308594 L 16 20.691406 C 16 19.757406 15.430406 19 14.566406 19 z M 17.003906 19 L 17.003906 30.59375 C 17.003906 31.28175 17.323906 32 18.003906 32 L 20.003906 32 L 20.003906 35.375 C 20.003906 36.273 20.620188 37 21.492188 37 C 22.359188 37 23.003906 36.273 23.003906 35.375 L 23.003906 32 L 25.003906 32 L 25.003906 35.375 C 25.003906 36.273 25.745188 37 26.617188 37 C 27.484188 37 28.007812 36.273 28.007812 35.375 L 28.007812 32 L 30.007812 32 C 30.683812 32 31.007812 31.2807 31.007812 30.59375 L 31.007812 19 L 17.003906 19 z M 33.4375 19 C 32.5745 19 32.003906 19.758406 32.003906 20.691406 L 32.003906 27.308594 C 32.003906 28.242594 32.5735 29.003906 33.4375 29.003906 C 34.3045 29.003906 35 28.241594 35 27.308594 L 35 20.691406 C 35 19.757406 34.3015 19 33.4375 19 z"/>
 <path style="fill:#ffffff;opacity:0.2" d="M 6 4 C 4.892 4 4 4.892 4 6 L 4 7 C 4 5.892 4.892 5 6 5 L 42 5 C 43.108 5 44 5.892 44 7 L 44 6 C 44 4.892 43.108 4 42 4 L 6 4 z"/>
</svg>
